svgs/muehle.svg

<svg xmlns="http://www.w3.org/2000/svg" viewBox="0 0 192 192"><path d="M16.5 16.5h159v159h-159Z" fill="none" stroke="#000" stroke-width="12" stroke-linecap="round" stroke-linejoin="round"/><path d="M44.325 44.325h103.35v103.35H44.325Z" fill="none" stroke="#000" stroke-width="12" stroke-linecap="round" stroke-linejoin="round"/><path d="M70.162 70.162h51.675v51.675H70.162ZM96 16.5v53.662M175.5 96h-53.662M16.5 96h53.663M96 175.5v-53.662" fill="none" stroke="#000" stroke-width="12" stroke-linecap="round" stroke-linejoin="round"/></svg>

<svg
    xmlns="http://www.w3.org/2000/svg"
    viewBox="0 0 192 192"
    id="vector">
    <path
        id="path"
        d="M 16.5 16.5 L 175.5 16.5 L 175.5 175.5 L 16.5 175.5 Z"
        fill="none"
        stroke="#000000"
        stroke-width="12"
        stroke-linecap="round"
        stroke-linejoin="round"/>
    <path
        id="path_1"
        d="M 44.325 44.325 L 147.675 44.325 L 147.675 147.675 L 44.325 147.675 Z"
        fill="none"
        stroke="#000000"
        stroke-width="12"
        stroke-linecap="round"
        stroke-linejoin="round"/>
    <path
        id="path_2"
        d="M 70.162 70.162 L 121.837 70.162 L 121.837 121.837 L 70.162 121.837 Z M 96 16.5 L 96 70.162 M 175.5 96 L 121.838 96 M 16.5 96 L 70.163 96 M 96 175.5 L 96 121.838"
        fill="none"
        stroke="#000000"
        stroke-width="12"
        stroke-linecap="round"
        stroke-linejoin="round"/>
</svg>
